32x32/apps/org.gnome.design.IconLibrary.svg

<svg xmlns="http://www.w3.org/2000/svg" width="32" height="32" version="1.1">
 <path style="opacity:0.2" d="M 2,8.6 V 31 H 26.923078 C 28.074105,31 29,30.048957 29,28.866667 V 10.733333 C 29,9.551041 28.074105,8.6 26.923078,8.6 Z m 0,0"/>
 <path style="fill:#f4f4f7" d="M 2,7.6 V 30 H 26.923078 C 28.074105,30 29,29.048957 29,27.866667 V 9.7333333 C 29,8.551041 28.074105,7.6 26.923078,7.6 Z m 0,0"/>
 <path style="opacity:0.1" d="M 29,24.363281 C 29,25.269887 28.331056,26 27.5,26 H 17 5 2 v 1 h 3 12 10.5 c 0.831056,0 1.5,-0.730113 1.5,-1.636719 z"/>
 <path style="fill:#464559" d="M 2,2.0000001 H 5 V 26 H 2 Z m 0,0"/>
 <path style="fill:#5c5c6c" d="M 17,14 V 26 H 27.499999 C 28.331055,26 29,25.270242 29,24.363636 V 14 Z m 0,0"/>
 <path style="fill:#cccccc" d="M 5,26 H 17 V 14 H 5 Z m 0,0"/>
 <path style="fill:#cccccc" d="M 17,14.000001 V 2.0000008 H 27.499999 C 28.331055,2.0000008 29,2.7297591 29,3.6363644 V 14.000001 Z m 0,0"/>
 <path style="fill:#5c5c6c" d="M 5,2.0000008 H 17 V 14.000001 H 5 Z m 0,0"/>
 <path style="opacity:0.1" d="M 14,7.6587716 C 14,6.7249296 13.276784,5.9669995 12.384246,5.9669995 11.796875,5.9669995 11.282206,6.2957041 11,6.7872528 10.717792,6.2957041 10.203124,5.9669995 9.6157527,5.9669995 8.7232143,5.9669995 8,6.7249296 8,7.6587716 8,8.1452948 8.1961095,8.5835672 8.5098848,8.8921664 h -0.00102 L 10.962624,11.367 13.491004,8.8921664 h -0.0011 c 0.313787,-0.3085992 0.509897,-0.7468716 0.509897,-1.2333948"/>
 <path style="fill:#dedcd9" d="M 14,6.6587716 C 14,5.7249296 13.276784,4.9669995 12.384246,4.9669995 11.796875,4.9669995 11.282206,5.2957041 11,5.7872528 10.717792,5.2957041 10.203124,4.9669995 9.6157527,4.9669995 8.7232143,4.9669995 8,5.7249296 8,6.6587716 8,7.1452948 8.1961095,7.5835672 8.5098848,7.8921664 h -0.00102 L 10.962624,10.367 13.491004,7.8921664 h -0.0011 c 0.313787,-0.3085992 0.509897,-0.7468716 0.509897,-1.2333948"/>
 <path style="fill:#5c5c6c" d="M 23,5 C 21.330177,5 20,6.3779776 20,8.0000003 20,9.6220231 21.330177,11 23,11 24.669822,11 26,9.6220239 26,8.0000003 26,6.377977 24.669822,5 23,5 Z m 0,1.8000003 c 0.646835,0 1.2,0.4970502 1.2,1.2 0,0.7029511 -0.553165,1.2000001 -1.2,1.2000001 -0.646835,0 -1.2,-0.4970478 -1.2,-1.2000001 0,-0.7029498 0.553165,-1.2 1.2,-1.2 z"/>
 <path style="opacity:0.2" d="m 23.685547,17.499946 a 0.85840356,0.85840356 0 0 0 -0.630859,1.460938 l 0.99414,1.039062 h -3.242187 a 0.77526493,1 0 1 0 0,2 h 3.242187 l -0.99414,1.039062 a 0.85924164,0.85924164 0 0 0 1.242187,1.1875 l 3.085937,-3.226562 -3.085937,-3.226562 a 0.85840356,0.85840356 0 0 0 -0.611328,-0.273438 z"/>
 <path style="fill:none;stroke:#dedcd9;stroke-width:1.71663547;stroke-linecap:round" d="m 23.675794,17.367175 2.518352,2.632826 -2.518352,2.632823"/>
 <path style="fill:#dedcd9" d="m 20.806405,19.000807 a 0.77526493,1 0 1 0 0,1.998386 h 5.053857 a 0.77526493,1 0 1 0 0,-1.998386 z"/>
 <path style="fill:#5c5c6c" d="M 8.5000006,16 C 9.3285158,16 9.999999,16.671484 9.999999,17.499999 9.999999,18.328516 9.3285158,19 8.5000006,19 7.6714847,19 7,18.328516 7,17.499999 7,16.671484 7.6714847,16 8.5000006,16 Z"/>
 <path style="fill:#fa5e4a" d="m 5,26 h 4 v 6 L 7,30.0255 5,32 Z"/>
 <path style="fill:#5c5c6c" d="m 13.500001,16 c 0.828515,0 1.499998,0.671484 1.499998,1.499999 C 14.999999,18.328516 14.328516,19 13.500001,19 12.671485,19 12,18.328516 12,17.499999 12,16.671484 12.671485,16 13.500001,16 Z"/>
 <path style="fill:#5c5c6c" d="M 8.5000006,21 C 9.3285158,21 9.999999,21.671484 9.999999,22.499999 9.999999,23.328516 9.3285158,24 8.5000006,24 7.6714847,24 7,23.328516 7,22.499999 7,21.671484 7.6714847,21 8.5000006,21 Z"/>
 <path style="fill:#5c5c6c" d="m 13.500001,21 c 0.828515,0 1.499998,0.671484 1.499998,1.499999 C 14.999999,23.328516 14.328516,24 13.500001,24 12.671485,24 12,23.328516 12,22.499999 12,21.671484 12.671485,21 13.500001,21 Z"/>
 <rect style="opacity:0.2;fill:#f4f4f7" width="12" height="1" x="5" y="14"/>
 <rect style="opacity:0.1" width="12" height="1" x="17" y="14"/>
 <path style="fill:#f4f4f7;opacity:0.1" d="M 2 2 L 2 3 L 5 3 L 17 3 L 27.5 3 C 28.331056 3 29 3.7301134 29 4.6367188 L 29 3.6367188 C 29 2.7301133 28.331056 2 27.5 2 L 17 2 L 5 2 L 2 2 z"/>
 <path style="opacity:0.1" d="M 23 5 C 21.330177 5 20 6.3779773 20 8 C 20 8.1707322 20.022461 8.335998 20.050781 8.5 C 20.291512 7.1059184 21.505941 6 23 6 C 24.494059 6 25.708487 7.1059181 25.949219 8.5 C 25.977539 8.335998 26 8.1707322 26 8 C 26 6.3779767 24.669822 5 23 5 z M 21.908203 8.5 C 21.841204 8.6500676 21.800781 8.8168148 21.800781 9 C 21.800781 9.7029523 22.353165 10.199219 23 10.199219 C 23.646835 10.199219 24.199219 9.7029511 24.199219 9 C 24.199219 8.8168148 24.158796 8.6500676 24.091797 8.5 C 23.901696 8.9257976 23.478273 9.1992188 23 9.1992188 C 22.521727 9.1992188 22.098304 8.9257978 21.908203 8.5 z"/>
 <path style="opacity:0.1" d="M 8.5 16 C 7.6714841 16 7 16.671485 7 17.5 C 7 17.676232 7.0359861 17.842929 7.0917969 18 C 7.2983691 17.418635 7.8477155 17 8.5 17 C 9.152284 17 9.7016307 17.418635 9.9082031 18 C 9.964014 17.842929 10 17.676232 10 17.5 C 10 16.671485 9.3285152 16 8.5 16 z M 13.5 16 C 12.671484 16 12 16.671485 12 17.5 C 12 17.676232 12.035986 17.842929 12.091797 18 C 12.298369 17.418635 12.847715 17 13.5 17 C 14.152284 17 14.701631 17.418635 14.908203 18 C 14.964014 17.842929 15 17.676232 15 17.5 C 15 16.671485 14.328515 16 13.5 16 z M 8.5 21 C 7.6714841 21 7 21.671485 7 22.5 C 7 22.676232 7.0359861 22.842929 7.0917969 23 C 7.2983691 22.418635 7.8477155 22 8.5 22 C 9.152284 22 9.7016307 22.418635 9.9082031 23 C 9.964014 22.842929 10 22.676232 10 22.5 C 10 21.671485 9.3285152 21 8.5 21 z M 13.5 21 C 12.671484 21 12 21.671485 12 22.5 C 12 22.676232 12.035986 22.842929 12.091797 23 C 12.298369 22.418635 12.847715 22 13.5 22 C 14.152284 22 14.701631 22.418635 14.908203 23 C 14.964014 22.842929 15 22.676232 15 22.5 C 15 21.671485 14.328515 21 13.5 21 z"/>
</svg>

<svg xmlns="http://www.w3.org/2000/svg" width="32" height="32"><path style="opacity:.2" d="M2 8.6V31h24.923C28.074 31 29 30.049 29 28.867V10.733c0-1.182-.926-2.133-2.077-2.133zm0 0"/><path style="fill:#f4f4f7" d="M2 7.6V30h24.923C28.074 30 29 29.049 29 27.867V9.733c0-1.182-.926-2.133-2.077-2.133zm0 0"/><path style="opacity:.1" d="M29 24.363C29 25.27 28.331 26 27.5 26H2v1h25.5c.831 0 1.5-.73 1.5-1.637z"/><path style="fill:#464559" d="M2 2h3v24H2zm0 0"/><path style="fill:#5c5c6c" d="M17 14v12h10.5c.831 0 1.5-.73 1.5-1.636V14zm0 0"/><path style="fill:#ccc" d="M5 26h12V14H5zM17 14V2h10.5c.831 0 1.5.73 1.5 1.636V14zm0 0"/><path style="fill:#5c5c6c" d="M5 2h12v12H5zm0 0"/><path style="opacity:.1" d="M14 7.659c0-.934-.723-1.692-1.616-1.692a1.6 1.6 0 0 0-1.384.82 1.6 1.6 0 0 0-1.384-.82C8.723 5.967 8 6.725 8 7.659c0 .486.196.925.51 1.233h-.001l2.454 2.475 2.528-2.475h-.001c.314-.308.51-.747.51-1.233"/><path style="fill:#dedcd9" d="M14 6.659c0-.934-.723-1.692-1.616-1.692a1.6 1.6 0 0 0-1.384.82 1.6 1.6 0 0 0-1.384-.82C8.723 4.967 8 5.725 8 6.659c0 .486.196.925.51 1.233h-.001l2.454 2.475 2.528-2.475h-.001c.314-.308.51-.747.51-1.233"/><path style="fill:#5c5c6c" d="M23 5c-1.67 0-3 1.378-3 3s1.33 3 3 3 3-1.378 3-3-1.33-3-3-3zm0 1.8c.647 0 1.2.497 1.2 1.2s-.553 1.2-1.2 1.2c-.647 0-1.2-.497-1.2-1.2s.553-1.2 1.2-1.2z"/><path style="opacity:.2" d="M23.686 17.5a.858.858 0 0 0-.631 1.46l.994 1.04h-3.242a.775 1 0 1 0 0 2h3.242l-.994 1.039a.86.86 0 0 0 1.242 1.188L27.383 21l-3.086-3.227a.858.858 0 0 0-.611-.273z"/><path style="fill:none;stroke:#dedcd9;stroke-width:1.71663547;stroke-linecap:round" d="M23.676 17.367 26.194 20l-2.518 2.633"/><path style="fill:#dedcd9" d="M20.806 19a.775 1 0 1 0 0 2h5.054a.775 1 0 1 0 0-2z"/><path style="fill:#5c5c6c" d="M8.5 16a1.5 1.5 0 1 1 0 3 1.5 1.5 0 0 1 0-3z"/><path style="fill:#fa5e4a" d="M5 26h4v6l-2-1.974L5 32z"/><path style="fill:#5c5c6c" d="M13.5 16a1.5 1.5 0 1 1 0 3 1.5 1.5 0 0 1 0-3zM8.5 21a1.5 1.5 0 1 1 0 3 1.5 1.5 0 0 1 0-3zM13.5 21a1.5 1.5 0 1 1 0 3 1.5 1.5 0 0 1 0-3z"/><path style="opacity:.2;fill:#f4f4f7" d="M5 14h12v1H5z"/><path style="opacity:.1" d="M17 14h12v1H17z"/><path style="fill:#f4f4f7;opacity:.1" d="M2 2v1h25.5c.831 0 1.5.73 1.5 1.637v-1C29 2.73 28.331 2 27.5 2H2z"/><path style="opacity:.1" d="M23 5c-1.67 0-3 1.378-3 3 0 .17.022.336.05.5C20.293 7.106 21.507 6 23 6c1.494 0 2.708 1.106 2.95 2.5.028-.164.05-.33.05-.5 0-1.622-1.33-3-3-3zm-1.092 3.5c-.067.15-.107.317-.107.5 0 .703.552 1.2 1.199 1.2s1.2-.497 1.2-1.2c0-.183-.041-.35-.108-.5-.19.426-.614.7-1.092.7-.478 0-.902-.274-1.092-.7zM8.5 16A1.5 1.5 0 0 0 7 17.5c0 .176.036.343.092.5.206-.581.756-1 1.408-1 .652 0 1.202.419 1.408 1 .056-.157.092-.324.092-.5A1.5 1.5 0 0 0 8.5 16zm5 0a1.5 1.5 0 0 0-1.5 1.5c0 .176.036.343.092.5.206-.581.756-1 1.408-1 .652 0 1.202.419 1.408 1 .056-.157.092-.324.092-.5a1.5 1.5 0 0 0-1.5-1.5zm-5 5A1.5 1.5 0 0 0 7 22.5c0 .176.036.343.092.5.206-.581.756-1 1.408-1 .652 0 1.202.419 1.408 1 .056-.157.092-.324.092-.5A1.5 1.5 0 0 0 8.5 21zm5 0a1.5 1.5 0 0 0-1.5 1.5c0 .176.036.343.092.5.206-.581.756-1 1.408-1 .652 0 1.202.419 1.408 1 .056-.157.092-.324.092-.5a1.5 1.5 0 0 0-1.5-1.5z"/></svg>
